public/svgs/twin/title-page.svg

<svg width="1205" height="482" viewBox="0 0 1205 482" fill="none" xmlns="http://www.w3.org/2000/svg">
<path fill-rule="evenodd" clip-rule="evenodd" d="M0 0.200195V131.3H50.35C84.55 131.3 101.65 114.137 101.65 79.8102V51.6902C101.65 17.3635 84.55 0.200195 50.35 0.200195H0ZM51.68 110.21H23.18V21.2902H51.68C69.54 21.2902 78.47 30.2202 78.47 48.0802V83.4202C78.47 101.28 69.54 110.21 51.68 110.21Z" fill="#BB1212"/>
<path d="M130.068 131.3V0.200195H153.248V131.3H130.068Z" fill="#BB1212"/>
<path d="M183.647 31.1702V100.33C183.647 120.977 193.97 131.3 214.617 131.3H285.297V52.8302H234.377V73.9202H262.117V110.21H215.187C209.614 110.21 206.827 107.487 206.827 102.04V29.4602C206.827 24.0135 209.614 21.2902 215.187 21.2902H281.497V8.9402L270.287 0.200195H214.617C193.97 0.200195 183.647 10.5235 183.647 31.1702Z" fill="#BB1212"/>
<path d="M313.76 131.3V0.200195H336.94V131.3H313.76Z" fill="#BB1212"/>
<path d="M357.648 0.200195V21.2902H398.878V131.3H422.248V21.2902H463.478V0.200195H357.648Z" fill="#BB1212"/>
<path fill-rule="evenodd" clip-rule="evenodd" d="M462.274 126.74L502.744 0.200195H538.844L579.124 126.74L576.274 131.3H556.704L547.774 102.42H493.624L484.504 131.3H465.314L462.274 126.74ZM500.084 81.3302H541.504L522.504 21.2902H518.894L500.084 81.3302Z" fill="#BB1212"/>
<path d="M598.945 0.200195V131.3H681.405V110.21H622.125V0.200195H598.945Z" fill="#BB1212"/>
<path d="M736.164 21.2902V0.200195H841.994V21.2902H800.764V131.3H777.394V21.2902H736.164Z" fill="#BB1212"/>
<path d="M855.383 0.200195L852.153 4.76021L879.513 131.3H916.753L936.133 54.1602L955.703 131.3H993.133L1020.3 4.76021L1017.07 0.200195H998.073L974.703 110.21H972.423L947.723 13.5002H924.733L899.843 110.21H897.753L874.383 0.200195H855.383Z" fill="#BB1212"/>
<path d="M1042.03 131.3V0.200195H1065.21V131.3H1042.03Z" fill="#BB1212"/>
<path d="M1097.51 131.3V0.200195H1122.78L1180.92 93.6802V0.200195H1204.1V131.3H1179.02L1120.69 37.8202V131.3H1097.51Z" fill="#BB1212"/>
<path fill-rule="evenodd" clip-rule="evenodd" d="M854.389 201.381V317.301H874.885V274.965H899.413L920.917 317.301H938.389L940.909 312.933L920.749 273.453C931.949 270.429 937.549 261.861 937.549 247.749V228.765C937.549 210.509 928.421 201.381 910.165 201.381H854.389ZM909.661 256.317H874.885V220.029H909.661C914.589 220.029 917.053 222.437 917.053 227.253V248.925C917.053 253.853 914.589 256.317 909.661 256.317Z" fill="black"/>
<path d="M0 369.413L2.688 365.381H20.496L49.224 462.653H52.416L81.144 365.381H99.12L101.64 369.413L67.368 481.301H34.104L0 369.413Z" fill="black"/>
<path d="M119.041 365.381V481.301H139.537V365.381H119.041Z" fill="black"/>
<path d="M163.056 473.573V462.653H214.968C219.896 462.653 222.36 460.245 222.36 455.429V442.661C222.36 438.405 220.456 435.885 216.648 435.101L182.544 428.213C169.552 425.637 163.056 416.901 163.056 402.005V392.765C163.056 374.509 172.184 365.381 190.44 365.381H229.584L239.496 373.109V384.029H190.944C186.016 384.029 183.552 386.437 183.552 391.253V402.509C183.552 406.765 185.456 409.285 189.264 410.069L223.368 416.789C236.36 419.477 242.856 428.213 242.856 442.997V453.917C242.856 472.173 233.728 481.301 215.472 481.301H172.968L163.056 473.573Z" fill="black"/>
<path d="M265.361 365.381V453.917C265.361 472.173 274.489 481.301 292.745 481.301H327.857C346.113 481.301 355.241 472.173 355.241 453.917V365.381H334.745V455.429C334.745 460.245 332.281 462.653 327.353 462.653H293.249C288.321 462.653 285.857 460.245 285.857 455.429V365.381H265.361Z" fill="black"/>
<path fill-rule="evenodd" clip-rule="evenodd" d="M371.766 477.269L407.55 365.381H439.47L475.086 477.269L472.566 481.301H455.262L447.366 455.765H399.486L391.422 481.301H374.454L371.766 477.269ZM405.198 437.117H441.822L425.022 384.029H421.83L405.198 437.117Z" fill="black"/>
<path d="M492.611 365.381V481.301H565.523V462.653H513.107V365.381H492.611Z" fill="black"/>
<path d="M583.83 481.301V365.381H604.326V481.301H583.83Z" fill="black"/>
<path d="M626.165 465.341V481.301H712.685V462.653H652.037L711.005 381.341V365.381H627.845V384.029H685.133L626.165 465.341Z" fill="black"/>
<path fill-rule="evenodd" clip-rule="evenodd" d="M723.516 477.269L759.3 365.381H791.22L826.836 477.269L824.316 481.301H807.012L799.116 455.765H751.236L743.172 481.301H726.204L723.516 477.269ZM756.948 437.117H793.572L776.772 384.029H773.58L756.948 437.117Z" fill="black"/>
<path d="M825.746 365.381V384.029H862.202V481.301H882.866V384.029H919.322V365.381H825.746Z" fill="black"/>
<path d="M937.713 481.301V365.381H958.209V481.301H937.713Z" fill="black"/>
<path fill-rule="evenodd" clip-rule="evenodd" d="M985.088 392.765V453.917C985.088 472.173 994.216 481.301 1012.47 481.301H1050.94C1069.2 481.301 1078.33 472.173 1078.33 453.917V392.765C1078.33 374.509 1069.2 365.381 1050.94 365.381H1012.47C994.216 365.381 985.088 374.509 985.088 392.765ZM1012.98 462.653C1008.05 462.653 1005.58 460.245 1005.58 455.429V391.253C1005.58 386.437 1008.05 384.029 1012.98 384.029H1050.44C1055.37 384.029 1057.83 386.437 1057.83 391.253V455.429C1057.83 460.245 1055.37 462.653 1050.44 462.653H1012.98Z" fill="black"/>
<path d="M1105.22 365.381V481.301H1125.72V398.645L1177.29 481.301H1199.47V365.381H1178.97V448.037L1127.56 365.381H1105.22Z" fill="black"/>
<path d="M753.819 317.301V201.381H831.771V220.029H774.315V247.917H826.731V266.565H774.315V298.653H831.771V317.301H753.819Z" fill="black"/>
<path d="M643.405 201.381V317.301H663.901V279.501L678.349 264.045L713.797 317.301H732.613L734.629 313.101L691.621 249.093L730.597 205.581L728.581 201.381H709.429L663.901 252.117V201.381H643.405Z" fill="black"/>
<path fill-rule="evenodd" clip-rule="evenodd" d="M535.124 317.301V201.381H590.9C609.156 201.381 618.284 210.509 618.284 228.765V247.749C618.284 261.861 612.684 270.429 601.484 273.453L621.643 312.933L619.124 317.301H601.651L580.148 274.965H555.62V317.301H535.124ZM555.62 256.317H590.396C595.323 256.317 597.788 253.853 597.788 248.925V227.253C597.788 222.437 595.323 220.029 590.396 220.029H555.62V256.317Z" fill="black"/>
<path fill-rule="evenodd" clip-rule="evenodd" d="M450.062 201.381L414.278 313.269L416.966 317.301H433.934L441.998 291.765H489.878L497.774 317.301H515.078L517.598 313.269L481.982 201.381H450.062ZM484.334 273.117H447.71L464.342 220.029H467.534L484.334 273.117Z" fill="black"/>
<path d="M276.889 317.301V201.381H302.089L336.865 275.637L371.641 201.381H396.841V317.301H376.177V236.325L345.601 301.509H327.961L297.385 236.325V317.301H276.889Z" fill="black"/>
<path fill-rule="evenodd" clip-rule="evenodd" d="M156.756 228.765V289.917C156.756 308.173 165.884 317.301 184.14 317.301H222.612C240.868 317.301 249.996 308.173 249.996 289.917V228.765C249.996 210.509 240.868 201.381 222.612 201.381H184.14C165.884 201.381 156.756 210.509 156.756 228.765ZM184.644 298.653C179.716 298.653 177.252 296.245 177.252 291.429V227.253C177.252 222.437 179.716 220.029 184.644 220.029H222.108C227.036 220.029 229.5 222.437 229.5 227.253V291.429C229.5 296.245 227.036 298.653 222.108 298.653H184.644Z" fill="black"/>
<path d="M109.381 317.301V201.381H129.877V317.301H109.381Z" fill="black"/>
<path fill-rule="evenodd" clip-rule="evenodd" d="M0.279785 201.381V317.301H57.7358C75.9918 317.301 85.1198 308.173 85.1198 289.917V275.469C85.1198 269.533 83.2718 265.053 79.5758 262.029L72.5198 256.149L78.3998 249.093C80.6398 246.405 81.7598 243.157 81.7598 239.349V228.765C81.7598 210.509 72.6318 201.381 54.3758 201.381H0.279785ZM57.2318 298.653H20.7758V266.565H57.2318C62.1598 266.565 64.6238 268.973 64.6238 273.789V291.429C64.6238 296.245 62.1598 298.653 57.2318 298.653ZM53.8718 247.917H20.7758V220.029H53.8718C58.7998 220.029 61.2638 222.437 61.2638 227.253V240.525C61.2638 245.453 58.7998 247.917 53.8718 247.917Z" fill="black"/>
</svg>

<svg xmlns="http://www.w3.org/2000/svg" width="1205" height="482" fill="none" viewBox="0 0 1205 482"><path fill="#bb1212" fill-rule="evenodd" d="M0 .2v131.1h50.35q51.3 0 51.3-51.49V51.69Q101.65.2 50.35.2zm51.68 110.01h-28.5V21.29h28.5q26.79 0 26.79 26.79v35.34q0 26.79-26.79 26.79" clip-rule="evenodd"/><path fill="#bb1212" d="M130.068 131.3V.2h23.18v131.1zM183.647 31.17v69.16q0 30.97 30.97 30.97h70.68V52.83h-50.92v21.09h27.74v36.29h-46.93q-8.36 0-8.36-8.17V29.46q0-8.17 8.36-8.17h66.31V8.94L270.287.2h-55.67q-30.97 0-30.97 30.97M313.76 131.3V.2h23.18v131.1zM357.648.2v21.09h41.23V131.3h23.37V21.29h41.23V.2z"/><path fill="#bb1212" fill-rule="evenodd" d="M462.274 126.74 502.744.2h36.1l40.28 126.54-2.85 4.56h-19.57l-8.93-28.88h-54.15l-9.12 28.88h-19.19zm37.81-45.41h41.42l-19-60.04h-3.61z" clip-rule="evenodd"/><path fill="#bb1212" d="M598.945.2v131.1h82.46v-21.09h-59.28V.2zM736.164 21.29V.2h105.83v21.09h-41.23V131.3h-23.37V21.29zM855.383.2l-3.23 4.56 27.36 126.54h37.24l19.38-77.14 19.57 77.14h37.43L1020.3 4.76 1017.07.2h-18.997l-23.37 110.01h-2.28l-24.7-96.71h-22.99l-24.89 96.71h-2.09L874.383.2zM1042.03 131.3V.2h23.18v131.1zM1097.51 131.3V.2h25.27l58.14 93.48V.2h23.18v131.1h-25.08l-58.33-93.48v93.48z"/><path fill="#000" fill-rule="evenodd" d="M854.389 201.381v115.92h20.496v-42.336h24.528l21.504 42.336h17.472l2.52-4.368-20.16-39.48q16.8-4.536 16.8-25.704v-18.984q0-27.384-27.384-27.384zm55.272 54.936h-34.776v-36.288h34.776q7.392 0 7.392 7.224v21.672q0 7.392-7.392 7.392" clip-rule="evenodd"/><path fill="#000" d="m0 369.413 2.688-4.032h17.808l28.728 97.272h3.192l28.728-97.272H99.12l2.52 4.032-34.272 111.888H34.104zM119.041 365.381v115.92h20.496v-115.92zM163.056 473.573v-10.92h51.912q7.392 0 7.392-7.224v-12.768q0-6.384-5.712-7.56l-34.104-6.888q-19.488-3.864-19.488-26.208v-9.24q0-27.384 27.384-27.384h39.144l9.912 7.728v10.92h-48.552q-7.392 0-7.392 7.224v11.256q0 6.384 5.712 7.56l34.104 6.72q19.488 4.032 19.488 26.208v10.92q0 27.384-27.384 27.384h-42.504zM265.361 365.381v88.536q0 27.384 27.384 27.384h35.112q27.384 0 27.384-27.384v-88.536h-20.496v90.048q0 7.224-7.392 7.224h-34.104q-7.392 0-7.392-7.224v-90.048z"/><path fill="#000" fill-rule="evenodd" d="m371.766 477.269 35.784-111.888h31.92l35.616 111.888-2.52 4.032h-17.304l-7.896-25.536h-47.88l-8.064 25.536h-16.968zm33.432-40.152h36.624l-16.8-53.088h-3.192z" clip-rule="evenodd"/><path fill="#000" d="M492.611 365.381v115.92h72.912v-18.648h-52.416v-97.272zM583.83 481.301v-115.92h20.496v115.92zM626.165 465.341v15.96h86.52v-18.648h-60.648l58.968-81.312v-15.96h-83.16v18.648h57.288z"/><path fill="#000" fill-rule="evenodd" d="M723.516 477.269 759.3 365.381h31.92l35.616 111.888-2.52 4.032h-17.304l-7.896-25.536h-47.88l-8.064 25.536h-16.968zm33.432-40.152h36.624l-16.8-53.088h-3.192z" clip-rule="evenodd"/><path fill="#000" d="M825.746 365.381v18.648h36.456v97.272h20.664v-97.272h36.456v-18.648zM937.713 481.301v-115.92h20.496v115.92z"/><path fill="#000" fill-rule="evenodd" d="M985.088 392.765v61.152q0 27.384 27.382 27.384h38.47q27.39 0 27.39-27.384v-61.152q0-27.384-27.39-27.384h-38.47q-27.381 0-27.382 27.384m27.892 69.888c-4.93 0-7.4-2.408-7.4-7.224v-64.176c0-4.816 2.47-7.224 7.4-7.224h37.46c4.93 0 7.39 2.408 7.39 7.224v64.176c0 4.816-2.46 7.224-7.39 7.224z" clip-rule="evenodd"/><path fill="#000" d="M1105.22 365.381v115.92h20.5v-82.656l51.57 82.656h22.18v-115.92h-20.5v82.656l-51.41-82.656zM753.819 317.301v-115.92h77.952v18.648h-57.456v27.888h52.416v18.648h-52.416v32.088h57.456v18.648zM643.405 201.381v115.92h20.496v-37.8l14.448-15.456 35.448 53.256h18.816l2.016-4.2-43.008-64.008 38.976-43.512-2.016-4.2h-19.152l-45.528 50.736v-50.736z"/><path fill="#000" fill-rule="evenodd" d="M535.124 317.301v-115.92H590.9q27.384 0 27.384 27.384v18.984q0 21.168-16.8 25.704l20.159 39.48-2.519 4.368h-17.473l-21.503-42.336H555.62v42.336zm20.496-60.984h34.776q7.391 0 7.392-7.392v-21.672q0-7.224-7.392-7.224H555.62zM450.062 201.381l-35.784 111.888 2.688 4.032h16.968l8.064-25.536h47.88l7.896 25.536h17.304l2.52-4.032-35.616-111.888zm34.272 71.736H447.71l16.632-53.088h3.192z" clip-rule="evenodd"/><path fill="#000" d="M276.889 317.301v-115.92h25.2l34.776 74.256 34.776-74.256h25.2v115.92h-20.664v-80.976l-30.576 65.184h-17.64l-30.576-65.184v80.976z"/><path fill="#000" fill-rule="evenodd" d="M156.756 228.765v61.152q0 27.384 27.384 27.384h38.472q27.384 0 27.384-27.384v-61.152q0-27.384-27.384-27.384H184.14q-27.384 0-27.384 27.384m27.888 69.888q-7.392 0-7.392-7.224v-64.176q0-7.224 7.392-7.224h37.464q7.392 0 7.392 7.224v64.176q0 7.224-7.392 7.224z" clip-rule="evenodd"/><path fill="#000" d="M109.381 317.301v-115.92h20.496v115.92z"/><path fill="#000" fill-rule="evenodd" d="M.28 201.381v115.92h57.456q27.384 0 27.384-27.384v-14.448q0-8.904-5.544-13.44l-7.056-5.88 5.88-7.056q3.36-4.032 3.36-9.744v-10.584q0-27.384-27.384-27.384zm56.952 97.272H20.776v-32.088h36.456q7.392 0 7.392 7.224v17.64q0 7.224-7.392 7.224m-3.36-50.736H20.776v-27.888h33.096q7.392 0 7.392 7.224v13.272q0 7.392-7.392 7.392" clip-rule="evenodd"/></svg>
